Sources/FrostedUI/Resources/Icons.xcassets/replyFilled32.imageset/reply-filled-32.svg

<svg width="32" height="32" viewBox="0 0 32 32" fill="none" xmlns="http://www.w3.org/2000/svg" data-fui-icon="true">
  <path
    d="M15.9992 5.82748C15.9992 4.38564 14.2925 3.62405 13.2194 4.58706L1.88417 14.7597C1.14619 15.422 1.1462 16.5782 1.88417 17.2405L13.2194 27.413C14.2925 28.3761 15.9992 27.6145 15.9992 26.1726V21.6733C20.9905 21.74 23.6024 22.3157 25.1738 23.204C26.7669 24.1044 27.4025 25.3757 28.4062 27.3834L28.4381 27.4473C28.6456 27.8621 29.1109 28.0798 29.5624 27.9733C30.0137 27.8668 30.3325 27.4638 30.3325 27.0001C30.3325 21.3129 29.5966 17.06 27.1716 14.2618C24.856 11.5899 21.2084 10.4682 15.9992 10.345V5.82748Z"
    fill="currentColor"
  />
</svg>

<svg xmlns="http://www.w3.org/2000/svg" width="32" height="32" fill="none" data-fui-icon="true" viewBox="0 0 32 32"><path fill="currentColor" d="M16 5.827c0-1.441-1.707-2.203-2.78-1.24L1.883 14.76a1.667 1.667 0 0 0 0 2.48L13.22 27.414c1.074.963 2.78.201 2.78-1.24v-4.5c4.992.067 7.603.643 9.175 1.531 1.593.9 2.229 2.172 3.232 4.18l.032.063A1 1 0 0 0 30.333 27c0-5.687-.736-9.94-3.161-12.738-2.316-2.672-5.964-3.794-11.173-3.917z"/></svg>
